public/images/brand/logo.svg

<svg width="264" height="47" viewBox="0 0 264 47" fill="none" xmlns="http://www.w3.org/2000/svg">
<g clip-path="url(#clip0_116_292)">
<path d="M26.366 13.3269C26.0219 12.3531 25.3845 11.5098 24.5416 10.913C23.6987 10.3161 22.6916 9.99504 21.6588 9.99384H13.3306V4.99692C13.3306 4.34026 13.2011 3.69004 12.9497 3.08343C12.6982 2.47682 12.3297 1.92572 11.8651 1.46164C11.4005 0.997567 10.849 0.62961 10.2421 0.378811C9.63523 0.128012 8.98487 -0.000710811 8.3282 2.95214e-06H4.99873C4.34231 -0.000472933 3.69223 0.128438 3.08566 0.379366C2.47909 0.630294 1.92792 0.998317 1.46367 1.4624C0.999428 1.92647 0.631205 2.4775 0.380057 3.08398C0.128909 3.69046 -0.000237765 4.3405 3.2861e-07 4.99692V41.641C2.85529e-07 42.2974 0.12931 42.9473 0.380542 43.5537C0.631774 44.16 1.00001 44.711 1.46421 45.175C1.9284 45.639 2.47947 46.0071 3.08594 46.2581C3.6924 46.5091 4.34238 46.6382 4.99873 46.6379H21.6551C22.3115 46.6386 22.9616 46.5099 23.5682 46.259C24.1748 46.0081 24.7259 45.6401 25.1901 45.1759C25.6542 44.7118 26.0223 44.1607 26.2732 43.5541C26.524 42.9475 26.6528 42.2974 26.6521 41.641V14.9926C26.6518 14.4252 26.5551 13.8619 26.366 13.3269ZM23.319 39.9754C23.319 40.4127 23.2328 40.8458 23.0654 41.2499C22.8979 41.654 22.6525 42.0211 22.3432 42.3303C22.0338 42.6395 21.6665 42.8847 21.2624 43.0519C20.8582 43.2191 20.4251 43.3051 19.9877 43.3048H6.66437C5.78134 43.3048 4.93448 42.954 4.31008 42.3296C3.68569 41.7053 3.3349 40.8584 3.3349 39.9754C3.3349 39.0923 3.68569 38.2455 4.31008 37.6211C4.93448 36.9967 5.78134 36.6459 6.66437 36.6459H16.6564V33.3128H6.66437C5.7807 33.3128 4.93319 32.9619 4.30816 32.3372C3.68314 31.7125 3.33176 30.8652 3.33128 29.9815V6.38737C3.3416 6.2264 3.37077 6.0672 3.41819 5.91302C3.5874 5.1788 4.00052 4.52362 4.5901 4.05446C5.17968 3.5853 5.9109 3.32987 6.66437 3.32987C7.41785 3.32987 8.14906 3.5853 8.73865 4.05446C9.32823 4.52362 9.74135 5.1788 9.91056 5.91302C9.95681 6.09941 9.9853 6.28976 9.99566 6.48151V13.3251H19.9877C20.8712 13.3251 21.7185 13.6761 22.3433 14.3008C22.968 14.9256 23.319 15.7729 23.319 16.6564V39.9754Z" fill="white"/>
<path d="M16.6562 19.9877H9.99361V26.6502H16.6562V19.9877Z" fill="white"/>
<path d="M44.9999 32.6849V9H56.6678C61.3055 9 63.8044 11.4989 63.8044 15.4573C63.8095 16.3968 63.5384 17.3171 63.0248 18.1038C62.5111 18.8905 61.7776 19.5089 60.9154 19.8822C62.9123 20.6242 64.5191 22.231 64.5191 25.6193C64.5191 29.9378 61.6301 32.6849 55.6693 32.6849H44.9999ZM49.7877 13.0921V18.2344H56.0322C57.9936 18.2344 59.033 17.3424 59.033 15.6646C59.033 13.845 58.07 13.0948 55.7594 13.0948L49.7877 13.0921ZM56.0622 28.6419C58.3455 28.6419 59.7014 27.1797 59.7014 25.251C59.7014 23.1804 58.3374 22.2501 56.1331 22.2501H49.7877V28.6419H56.0622Z" fill="white"/>
<path d="M76.6089 30.3661C75.9678 31.9374 74.0391 32.8649 71.8621 32.8649C68.1874 32.8649 65.4403 30.3661 65.4403 26.5141V15.1299H70.0779V25.8348C70.0779 28.0172 71.0764 29.1084 73.0406 29.1084C75.1467 29.1084 76.6089 27.7171 76.6089 25.8348V15.1299H81.2466V33.1487C81.2466 38.1083 77.6783 41 73.1825 41C68.0455 41 65.4403 38.1819 65.4403 33.6506H69.7588C69.7588 35.7212 70.9727 37.0034 73.398 37.0034C75.0757 37.0034 76.6089 35.5412 76.6089 33.2223V30.3661Z" fill="white"/>
<path d="M83.1044 32.6849V15.13H87.4693V17.236C89.0025 14.8817 90.7866 14.6662 92.6799 14.6662H93.2855V19.413C92.8609 19.3422 92.4311 19.3066 92.0006 19.3066C89.147 19.3066 87.753 20.7334 87.753 23.5514V32.6849H83.1044Z" fill="white"/>
<path d="M93.0225 23.9061C93.0225 18.3409 96.4844 14.6635 102.05 14.6635C107.544 14.6635 110.97 18.3027 110.97 23.9061C110.97 29.5095 107.508 33.1487 102.05 33.1487C96.378 33.1487 93.0225 29.3676 93.0225 23.9061ZM106.297 23.9061C106.297 20.3378 104.87 18.5891 102.05 18.5891C99.2288 18.5891 97.7993 20.3378 97.7993 23.9061C97.7993 27.4744 99.2261 29.2585 102.044 29.2585C104.862 29.2585 106.297 27.4744 106.297 23.9061Z" fill="white"/>
<path d="M123.717 32.6849V22.0455C123.717 19.3339 122.931 18.5837 120.716 18.5837C118.291 18.5837 117.112 19.9477 117.112 22.6157V32.6849H112.475V15.13H116.897V17.6998C117.966 15.7383 119.75 14.6662 122.571 14.6662C125.924 14.6662 128.387 16.7013 128.387 20.5178V32.6849H123.717Z" fill="white"/>
<path d="M154.142 32.3302L154.041 30.0851C152.95 31.9947 150.366 33.1132 147.273 33.1132C141.014 33.1132 137.034 27.297 137.034 21.0034C137.034 14.3361 140.854 9 148.159 9C153.533 9 157.683 12.1973 158.024 16.7231H153.266C153.029 14.6143 150.748 12.9038 148.165 12.9038C144.389 12.9038 141.871 15.8283 141.871 21.2053C141.871 24.9127 143.743 29.1302 148.129 29.1302C151.226 29.1302 153.64 26.7841 153.64 23.947H148.639V20.185H158.062V32.3302H154.142Z" fill="white"/>
<path d="M159.456 23.9606C159.456 18.6546 162.755 15.149 168.063 15.149C173.301 15.149 176.567 18.6191 176.567 23.9606C176.567 29.3022 173.269 32.7722 168.063 32.7722C162.654 32.7722 159.456 29.1658 159.456 23.9606ZM172.112 23.9606C172.112 20.5588 170.748 18.8919 168.063 18.8919C165.379 18.8919 164.015 20.5588 164.015 23.9606C164.015 27.3625 165.379 29.0621 168.063 29.0621C170.748 29.0621 172.109 27.3625 172.109 23.9606H172.112Z" fill="white"/>
<path d="M188.713 32.3303V22.1929C188.713 19.6067 187.965 18.8919 185.857 18.8919C183.543 18.8919 182.422 20.185 182.422 22.7357V32.3275H177.997V15.5937H182.215V18.0489C183.235 16.1775 184.943 15.1572 187.624 15.1572C190.822 15.1572 193.171 17.0969 193.171 20.7361V32.3357L188.713 32.3303Z" fill="white"/>
<path d="M194.36 32.3303V28.9284L202.899 19.1074H194.938V15.5937H208.546V19.1647L200.007 28.7129H208.783V32.3194L194.36 32.3303Z" fill="white"/>
<path d="M220.378 32.3303C220.229 31.8434 220.137 31.3408 220.105 30.8326C219.049 31.9893 217.282 32.7722 215.037 32.7722C211.217 32.7722 209.458 30.9008 209.458 28.1809C209.458 23.3496 212.69 22.8067 217.145 22.1929C219.358 21.8873 219.969 21.4454 219.969 20.2832C219.969 19.192 218.878 18.5482 217.145 18.5482C215.137 18.5482 214.322 19.5358 214.117 21.0307H210.003C210.071 17.5607 211.976 15.1463 217.35 15.1463C222.656 15.1463 224.495 17.5279 224.495 21.7455V32.3248L220.378 32.3303ZM220.072 24.1325C219.631 24.5745 218.848 24.8118 217.216 25.1201C214.698 25.5947 213.88 26.3095 213.88 27.7363C213.88 28.9939 214.627 29.6077 216.024 29.6077C218.302 29.6077 220.004 27.9409 220.037 25.9685L220.072 24.1325Z" fill="white"/>
<path d="M226.264 32.3303V9.4693H230.686V32.3276L226.264 32.3303Z" fill="white"/>
<path d="M236.473 25.1173C236.609 27.6353 238.039 29.2667 240.216 29.2667C241.645 29.2667 242.903 28.5519 243.217 27.3953H247.767C246.747 30.8299 243.991 32.7695 240.42 32.7695C234.841 32.7695 232.053 29.7086 232.053 23.6524C232.053 18.4691 235.013 15.149 240.15 15.149C245.287 15.149 248.007 18.4827 248.007 25.1173H236.473ZM243.446 22.3293C243.377 19.8467 241.743 18.6546 240.011 18.6546C238.279 18.6546 236.778 20.0186 236.609 22.3293H243.446Z" fill="white"/>
<path d="M248.79 32.3303V28.9284L257.328 19.1074H249.368V15.5937H262.975V19.1647L254.437 28.7129H263.213V32.3193L248.79 32.3303Z" fill="white"/>
<g opacity="0.75">
<path d="M36.1816 47C36.1336 47 36.0875 46.9809 36.0536 46.947C36.0196 46.913 36.0005 46.867 36.0005 46.819V0.181048C36.0005 0.133031 36.0196 0.0869807 36.0536 0.0530277C36.0875 0.0190746 36.1336 0 36.1816 0C36.2296 0 36.2757 0.0190746 36.3096 0.0530277C36.3436 0.0869807 36.3626 0.133031 36.3626 0.181048V46.819C36.3626 46.867 36.3436 46.913 36.3096 46.947C36.2757 46.9809 36.2296 47 36.1816 47Z" fill="white"/>
</g>
</g>
<defs>
<clipPath id="clip0_116_292">
<rect width="263.213" height="47" fill="white"/>
</clipPath>
</defs>
</svg>

<?xml version="1.0" encoding="utf-8"?>
<!-- Generator: Adobe Illustrator 21.1.0, SVG Export Plug-In . SVG Version: 6.00 Build 0)  -->
<svg version="1.1" id="Layer_1" xmlns="http://www.w3.org/2000/svg" xmlns:xlink="http://www.w3.org/1999/xlink" x="0px" y="0px"
	 viewBox="0 0 264 47" style="enable-background:new 0 0 264 47;" xml:space="preserve">
<style type="text/css">
	.st0{clip-path:url(#SVGID_2_);}
	.st1{fill:#FFFFFF;}
	.st2{opacity:0.75;}
</style>
<g>
	<defs>
		<rect id="SVGID_1_" width="263.2" height="47"/>
	</defs>
	<clipPath id="SVGID_2_">
		<use xlink:href="#SVGID_1_"  style="overflow:visible;"/>
	</clipPath>
	<g class="st0">
		<path class="st1" d="M26.4,13.3c-0.3-1-1-1.8-1.8-2.4c-0.8-0.6-1.8-0.9-2.9-0.9h-8.3V5c0-0.7-0.1-1.3-0.4-1.9
			c-0.3-0.6-0.6-1.2-1.1-1.6c-0.5-0.5-1-0.8-1.6-1.1C9.6,0.1,9,0,8.3,0H5C4.3,0,3.7,0.1,3.1,0.4S1.9,1,1.5,1.5
			C1,1.9,0.6,2.5,0.4,3.1S0,4.3,0,5v36.6c0,0.7,0.1,1.3,0.4,1.9c0.3,0.6,0.6,1.2,1.1,1.6c0.5,0.5,1,0.8,1.6,1.1
			c0.6,0.3,1.3,0.4,1.9,0.4h16.7c0.7,0,1.3-0.1,1.9-0.4c0.6-0.3,1.2-0.6,1.6-1.1c0.5-0.5,0.8-1,1.1-1.6c0.3-0.6,0.4-1.3,0.4-1.9V15
			C26.7,14.4,26.6,13.9,26.4,13.3z M23.3,40c0,0.4-0.1,0.9-0.3,1.3c-0.2,0.4-0.4,0.8-0.7,1.1c-0.3,0.3-0.7,0.6-1.1,0.7
			c-0.4,0.2-0.8,0.3-1.3,0.3H6.7c-0.9,0-1.7-0.4-2.4-1c-0.6-0.6-1-1.5-1-2.4c0-0.9,0.4-1.7,1-2.4c0.6-0.6,1.5-1,2.4-1h10v-3.3h-10
			c-0.9,0-1.7-0.4-2.4-1c-0.6-0.6-1-1.5-1-2.4V6.4c0-0.2,0-0.3,0.1-0.5C3.6,5.2,4,4.5,4.6,4.1s1.3-0.7,2.1-0.7
			c0.8,0,1.5,0.3,2.1,0.7c0.6,0.5,1,1.1,1.2,1.9C10,6.1,10,6.3,10,6.5v6.8h10c0.9,0,1.7,0.4,2.4,1c0.6,0.6,1,1.5,1,2.4V40z"/>
		<path class="st1" d="M16.7,20H10v6.7h6.7V20z"/>
		<path class="st1" d="M45,32.7V9h11.7c4.6,0,7.1,2.5,7.1,6.5c0,0.9-0.3,1.9-0.8,2.6c-0.5,0.8-1.2,1.4-2.1,1.8
			c2,0.7,3.6,2.3,3.6,5.7c0,4.3-2.9,7.1-8.8,7.1H45z M49.8,13.1v5.1H56c2,0,3-0.9,3-2.6c0-1.8-1-2.6-3.3-2.6L49.8,13.1z M56.1,28.6
			c2.3,0,3.6-1.5,3.6-3.4c0-2.1-1.4-3-3.6-3h-6.3v6.4H56.1z"/>
		<path class="st1" d="M76.6,30.4c-0.6,1.6-2.6,2.5-4.7,2.5c-3.7,0-6.4-2.5-6.4-6.4V15.1h4.6v10.7c0,2.2,1,3.3,3,3.3
			c2.1,0,3.6-1.4,3.6-3.3V15.1h4.6v18c0,5-3.6,7.9-8.1,7.9c-5.1,0-7.7-2.8-7.7-7.3h4.3c0,2.1,1.2,3.4,3.6,3.4c1.7,0,3.2-1.5,3.2-3.8
			V30.4z"/>
		<path class="st1" d="M83.1,32.7V15.1h4.4v2.1c1.5-2.4,3.3-2.6,5.2-2.6h0.6v4.7c-0.4-0.1-0.9-0.1-1.3-0.1c-2.9,0-4.2,1.4-4.2,4.2
			v9.1H83.1z"/>
		<path class="st1" d="M93,23.9c0-5.6,3.5-9.2,9-9.2c5.5,0,8.9,3.6,8.9,9.2s-3.5,9.2-8.9,9.2C96.4,33.1,93,29.4,93,23.9z
			 M106.3,23.9c0-3.6-1.4-5.3-4.2-5.3c-2.8,0-4.3,1.7-4.3,5.3s1.4,5.4,4.2,5.4C104.9,29.3,106.3,27.5,106.3,23.9z"/>
		<path class="st1" d="M123.7,32.7V22c0-2.7-0.8-3.5-3-3.5c-2.4,0-3.6,1.4-3.6,4v10.1h-4.6V15.1h4.4v2.6c1.1-2,2.9-3,5.7-3
			c3.4,0,5.8,2,5.8,5.9v12.2H123.7z"/>
		<path class="st1" d="M154.1,32.3l-0.1-2.2c-1.1,1.9-3.7,3-6.8,3C141,33.1,137,27.3,137,21c0-6.7,3.8-12,11.1-12
			c5.4,0,9.5,3.2,9.9,7.7h-4.8c-0.2-2.1-2.5-3.8-5.1-3.8c-3.8,0-6.3,2.9-6.3,8.3c0,3.7,1.9,7.9,6.3,7.9c3.1,0,5.5-2.3,5.5-5.2h-5
			v-3.8h9.4v12.1H154.1z"/>
		<path class="st1" d="M159.5,24c0-5.3,3.3-8.8,8.6-8.8c5.2,0,8.5,3.5,8.5,8.8c0,5.3-3.3,8.8-8.5,8.8
			C162.7,32.8,159.5,29.2,159.5,24z M172.1,24c0-3.4-1.4-5.1-4-5.1c-2.7,0-4,1.7-4,5.1c0,3.4,1.4,5.1,4,5.1
			C170.7,29.1,172.1,27.4,172.1,24L172.1,24z"/>
		<path class="st1" d="M188.7,32.3V22.2c0-2.6-0.7-3.3-2.9-3.3c-2.3,0-3.4,1.3-3.4,3.8v9.6H178V15.6h4.2V18c1-1.9,2.7-2.9,5.4-2.9
			c3.2,0,5.5,1.9,5.5,5.6v11.6L188.7,32.3z"/>
		<path class="st1" d="M194.4,32.3v-3.4l8.5-9.8h-8v-3.5h13.6v3.6l-8.5,9.5h8.8v3.6L194.4,32.3z"/>
		<path class="st1" d="M220.4,32.3c-0.1-0.5-0.2-1-0.3-1.5c-1.1,1.2-2.8,1.9-5.1,1.9c-3.8,0-5.6-1.9-5.6-4.6c0-4.8,3.2-5.4,7.7-6
			c2.2-0.3,2.8-0.7,2.8-1.9c0-1.1-1.1-1.7-2.8-1.7c-2,0-2.8,1-3,2.5H210c0.1-3.5,2-5.9,7.3-5.9c5.3,0,7.1,2.4,7.1,6.6v10.6
			L220.4,32.3z M220.1,24.1c-0.4,0.4-1.2,0.7-2.9,1c-2.5,0.5-3.3,1.2-3.3,2.6c0,1.3,0.7,1.9,2.1,1.9c2.3,0,4-1.7,4-3.6L220.1,24.1z"
			/>
		<path class="st1" d="M226.3,32.3V9.5h4.4v22.9L226.3,32.3z"/>
		<path class="st1" d="M236.5,25.1c0.1,2.5,1.6,4.1,3.7,4.1c1.4,0,2.7-0.7,3-1.9h4.6c-1,3.4-3.8,5.4-7.3,5.4c-5.6,0-8.4-3.1-8.4-9.1
			c0-5.2,3-8.5,8.1-8.5c5.1,0,7.9,3.3,7.9,10H236.5z M243.4,22.3c-0.1-2.5-1.7-3.7-3.4-3.7s-3.2,1.4-3.4,3.7H243.4z"/>
		<path class="st1" d="M248.8,32.3v-3.4l8.5-9.8h-8v-3.5H263v3.6l-8.5,9.5h8.8v3.6L248.8,32.3z"/>
		<g class="st2">
			<path class="st1" d="M36.2,47c0,0-0.1,0-0.1-0.1c0,0-0.1-0.1-0.1-0.1V0.2c0,0,0-0.1,0.1-0.1c0,0,0.1-0.1,0.1-0.1s0.1,0,0.1,0.1
				c0,0,0.1,0.1,0.1,0.1v46.6c0,0,0,0.1-0.1,0.1C36.3,47,36.2,47,36.2,47z"/>
		</g>
	</g>
</g>
</svg>
